X:1

T:White Horse, The

M:2/4

L:1/8

B:Thompson’s Compleat Collection of 200 Favourite Country Dances, vol. 2 (London, 1765)

Z:Transcribed and edited by Flynn Titford-Mock, 2007

Z:abc’s:AK/Fiddler’s Companion

K:A

(Ac)(ce)|e2 dc|d<cB<A|B<GF<E|(Ac)(ce)|e2 dc|d<BA<G|A2 [A,2A2]:|

|:(Ac)(ea)|a2 (gf)|a<gf<e|f<^dc<B|(B^d)(fa)|a2 gf|gb ^df|e2E2:|
|:(ae)(cA)|d2 (3def|e<cB<A|B>GF<E|(ae)(cA)|d2 (3def|ecdB|A2 [A,2A2]:||

 

WHITE HORSE BREAKDOWN. Bluegrass, Breakdown. USA. G Major. Standard tuning. Intro, AABB. Composed by the 'Father of Bluegrass', mandolinist Bill Monroe. Source for notated version: Blaine Sprouse [Brody]. Brody (Fiddler’s Fakebook), 1983; pg. 292. County 736, Kenny Baker‑ "Kenny Baker Country." Takoma D‑1064, Norman Blake‑ "Directions." Rounder 0117, "Blaine Sprouse."

 

WHITE HOUSES OF SHEILDAG, THE (Taighean Geala Shieldaig). Scottish, Reel. G Major/A Dorian. Standard tuning. AABB. A pipe tune. MacDonald notes “also known in Skye as “Porst an Righ,” "The King’s tune.” MacDonald (The Skye Collection), 1887; pg. 70.

